X: 2402
T: Björnen
R: Sång, visa etc.
M: 4/4
L: 1/4
G: Nyckelharpa
N: Se låten Björndansen här på Folkwiki! Det är samma i grund och botten men lite annorlunda mot denna. Vill minnas att Johan Hedin gjort andrastämman. Någon som vet mera? Vill också minnas att låten finns med i "Låtboken 1". 
Q: 90
Z: .andersson
K: Bb

[V:1] [|: uGC C2 | GC C2 | EE DE | FF EF | 
[V:2] [|: C3/2D/2 E/2D/2 E | C3/2D/2 E/2D/2 E | C3/2D/2 E/2D/2 E | B,C DB, |
[V:1] GC GC | GC GC | EE DD | uC2 vC2 :|]
[V:2] C3/2D/2 E/2D/2E/2F/2 | GC G2 | EC DB, | C2 C2 :|]

(:musicend:)
(:music:)
